X:1
T:Plymouth Sound - Luxton
C:Taken down from Roger Luxton by H.Fl.S.
%%VWML:SBG-1-1-272-0
F:http://www.vwml.org/record/SBG/1/1/272
Z:Original Sibleius Transcription by Martin and Shan Graebe
L:1/8
M:3/8
I:linebreak $
K:F
F/ A/ | c c c | d/c/ A F/A/ | c B G | F2 c | A c A | G/A/ B A | G G/F/ D | C2 C/ C/ | F G/A/ B | 
c A A | B/c/ d e |$ f2 c/ c/ | f c A | c F A | c B A/G/ | F2 F/A/ | c B/A/ G/F/ | f2 f/ e/ | 
d d/c/ d/e/ | dc c | f c A/B/ |$ c F/A/ c | B A G | F2 F/A/ | c B/A/ G/F/ | f2 f/ e/ | 
d d/c/ d/e/ | dc c | f c A/B/ | c F/A/ c | B A G | !fermata!F2  || 



